; generated by PrusaSlicer 2.1.0+linux64 on 2019-10-03 at 13:48:15 UTC

; 

; external perimeters extrusion width = 0.45mm
; perimeters extrusion width = 0.45mm
; infill extrusion width = 0.45mm
; solid infill extrusion width = 0.45mm
; top infill extrusion width = 0.40mm
; first layer extrusion width = 0.42mm

M73 P0 R134
M73 Q0 S134
M201 X1000 Y1000 Z1000 E5000 ; sets maximum accelerations, mm/sec^2
M203 X200 Y200 Z12 E120 ; sets maximum feedrates, mm/sec
M204 P1250 R1250 T1250 ; sets acceleration (P, T) and retract acceleration (R), mm/sec^2
M205 X8.00 Y8.00 Z0.40 E1.50 ; sets the jerk limits, mm/sec
M205 S0 T0 ; sets the minimum extruding and travel feed rate, mm/sec
M107
M862.3 P "MK3" ; printer model check
M862.1 P0.4 ; nozzle diameter check
M115 U3.8.0 ; tell printer latest fw version
G90 ; use absolute coordinates
M83 ; extruder relative mode
M104 S215 ; set extruder temp
M140 S60 ; set bed temp
M190 S60 ; wait for bed temp
M109 S215 ; wait for extruder temp
G28 W ; home all without mesh bed level
G80 ; mesh bed leveling
G1 Y-3.0 F1000.0 ; go outside print area
G92 E0.0
G1 X60.0 E9.0 F1000.0 ; intro line
M73 Q0 S134
M73 P0 R134
G1 X100.0 E12.5 F1000.0 ; intro line
G92 E0.0
M221 S95
G21 ; set units to millimeters
G90 ; use absolute coordinates
M83 ; use relative distances for extrusion
M900 K30 ; Filament gcode
;BEFORE_LAYER_CHANGE
G92 E0.0
;0.2


G1 E-0.80000 F2100.00000
G1 Z0.600 F10800.000
;AFTER_LAYER_CHANGE
;0.2
G1 X61.399 Y121.394
G1 Z0.200
G1 E0.80000 F2100.00000
M204 S1000
G1 F1200
G1 X61.833 Y120.903 E0.02055
G1 X62.394 Y120.563 E0.02055
G1 X184.651 Y76.063 E4.07933
G1 X185.400 Y75.932 E0.02383
G1 X185.953 Y76.004 E0.01749
G1 X186.473 Y76.215 E0.01760
G1 X186.919 Y76.549 E0.01749
G1 X187.267 Y76.985 E0.01749
G1 X188.829 Y81.155 E0.13962
G1 X188.951 Y81.795 E0.02044
G1 X188.952 Y131.938 E1.57219
G1 X188.846 Y132.555 E0.01964
G1 X188.569 Y133.117 E0.01964
G1 X188.144 Y133.578 E0.01964
G1 X187.606 Y133.899 E0.01964
G1 X186.839 Y134.067 E0.02462
G1 X182.669 Y134.066 E0.13076
G1 X64.487 Y128.527 E3.70958
G1 X63.886 Y128.410 E0.01919
G1 X63.342 Y128.130 E0.01919
G1 X62.896 Y127.711 E0.01919
G1 X62.584 Y127.184 E0.01919
G1 X61.162 Y123.283 E0.13018
G1 X61.048 Y122.645 E0.02032
G1 X61.128 Y121.995 E0.02055
G1 X61.374 Y121.449 E0.01878
G1 F8640
G1 X61.833 Y120.903 E-0.16461
G1 X62.394 Y120.563 E-0.15133
G1 X64.201 Y119.906 E-0.44405
G1 E-0.04000 F2100.00000
G1 Z0.800 F10800.000
G1 X63.988 Y122.934
G1 Z0.200
G1 E0.80000 F2100.00000
G1 F1200
G1 X185.048 Y78.881 E4.03924
G1 X186.177 Y81.983 E0.10351
G1 X186.177 Y131.292 E1.54606
G1 X183.351 Y131.292 E0.08860
G1 X183.351 Y82.497 E1.52995
G1 X64.955 Y125.590 E3.95047
G1 X64.009 Y122.990 E0.08672
G1 F8640
G1 X67.101 Y121.864 E-0.76000
G1 E-0.04000 F2100.00000
G1 Z0.800 F10800.000
G1 X182.974 Y83.035
G1 Z0.200
G1 E0.80000 F2100.00000
G1 F1200
G1 X64.730 Y126.073 E3.94541
G1 X63.505 Y122.709 E0.11225
G1 X185.273 Y78.397 E4.06289
G1 X186.554 Y81.916 E0.11742
G1 X186.554 Y131.669 E1.55997
G1 X182.974 Y131.669 E0.11225
G1 X182.974 Y83.095 E1.52300
G1 X182.872 Y82.649 F10800.000
G1 X183.312 Y82.391
G1 F1200
G1 X181.423 Y80.501 E0.08383
G1 X181.031 Y80.643 E0.01306
G1 X182.789 Y82.401 E0.07796
G1 X182.398 Y82.543 E0.01306
G1 X180.640 Y80.785 E0.07796
G1 X180.249 Y80.928 E0.01306
G1 X182.007 Y82.685 E0.07796
G1 X181.616 Y82.828 E0.01306
G1 X179.858 Y81.070 E0.07796
G1 X179.467 Y81.212 E0.01306
G1 X181.224 Y82.970 E0.07796
G1 X180.833 Y83.112 E0.01306
G1 X179.076 Y81.355 E0.07796
G1 X178.685 Y81.497 E0.01306
G1 X180.442 Y83.255 E0.07797
G1 X180.051 Y83.397 E0.01306
G1 X178.293 Y81.639 E0.07797
G1 X177.902 Y81.782 E0.01306
M73 Q0 S133
G1 X179.660 Y83.539 E0.07797
G1 X179.269 Y83.682 E0.01306
G1 X177.511 Y81.924 E0.07797
G1 X177.120 Y82.066 E0.01306
G1 X178.878 Y83.824 E0.07797
G1 X178.487 Y83.966 E0.01306
G1 X176.729 Y82.209 E0.07797
G1 X176.338 Y82.351 E0.01306
G1 X178.095 Y84.109 E0.07797
G1 X177.704 Y84.251 E0.01306
G1 X175.947 Y82.493 E0.07797
M73 P0 R133
G1 X175.555 Y82.636 E0.01306
G1 X177.313 Y84.394 E0.07797
G1 X176.922 Y84.536 E0.01306
G1 X175.164 Y82.778 E0.07797
G1 X174.773 Y82.920 E0.01306
G1 X176.531 Y84.678 E0.07797
G1 X176.140 Y84.821 E0.01306
G1 X174.382 Y83.063 E0.07798
G1 X173.991 Y83.205 E0.01306
G1 X175.749 Y84.963 E0.07798
G1 X175.358 Y85.105 E0.01306
G1 X173.600 Y83.347 E0.07798
G1 X173.209 Y83.490 E0.01306
G1 X174.966 Y85.248 E0.07798
G1 X174.575 Y85.390 E0.01306
G1 X172.817 Y83.632 E0.07798
G1 X172.426 Y83.774 E0.01306
G1 X174.184 Y85.532 E0.07798
G1 X173.793 Y85.675 E0.01306
G1 X172.035 Y83.917 E0.07798
G1 X171.644 Y84.059 E0.01306
G1 X173.402 Y85.817 E0.07798
G1 X173.011 Y85.959 E0.01306
G1 X171.253 Y84.201 E0.07798
G1 X170.862 Y84.344 E0.01306
G1 X172.620 Y86.102 E0.07798
G1 X172.228 Y86.244 E0.01306
G1 X170.470 Y84.486 E0.07798
G1 X170.079 Y84.629 E0.01306
G1 X171.837 Y86.387 E0.07799
G1 X171.446 Y86.529 E0.01306
G1 X169.688 Y84.771 E0.07799
G1 X169.297 Y84.913 E0.01306
G1 X171.055 Y86.671 E0.07799
G1 X170.664 Y86.814 E0.01306
G1 X168.906 Y85.056 E0.07799
G1 X168.515 Y85.198 E0.01306
G1 X170.273 Y86.956 E0.07799
G1 X169.882 Y87.098 E0.01306
G1 X168.124 Y85.340 E0.07799
G1 X167.732 Y85.483 E0.01306
G1 X169.491 Y87.241 E0.07799
G1 X169.099 Y87.383 E0.01306
G1 X167.341 Y85.625 E0.07799
G1 X166.950 Y85.767 E0.01306
G1 X168.708 Y87.525 E0.07799
G1 X168.317 Y87.668 E0.01306
G1 X166.559 Y85.910 E0.07799
G1 X166.168 Y86.052 E0.01306
G1 X167.926 Y87.810 E0.07799
G1 X167.535 Y87.952 E0.01306
G1 X165.777 Y86.194 E0.07800
G1 X165.386 Y86.337 E0.01306
G1 X167.144 Y88.095 E0.07800
G1 X166.753 Y88.237 E0.01306
G1 X164.994 Y86.479 E0.07800
G1 X164.603 Y86.621 E0.01306
G1 X166.362 Y88.380 E0.07800
G1 X165.970 Y88.522 E0.01306
G1 X164.212 Y86.764 E0.07800
G1 X163.821 Y86.906 E0.01306
G1 X165.579 Y88.664 E0.07800
G1 X165.188 Y88.807 E0.01306
G1 X163.430 Y87.048 E0.07800
G1 X163.039 Y87.191 E0.01306
G1 X164.797 Y88.949 E0.07800
G1 X164.406 Y89.091 E0.01306
G1 X162.648 Y87.333 E0.07800
G1 X162.256 Y87.475 E0.01306
G1 X164.015 Y89.234 E0.07800
G1 X163.624 Y89.376 E0.01306
G1 X161.865 Y87.618 E0.07800
G1 X161.474 Y87.760 E0.01306
G1 X163.233 Y89.518 E0.07800
G1 X162.841 Y89.661 E0.01306
G1 X161.083 Y87.902 E0.07801
G1 X160.692 Y88.045 E0.01306
G1 X162.450 Y89.803 E0.07801
G1 X162.059 Y89.946 E0.01306
G1 X160.301 Y88.187 E0.07801
G1 X159.910 Y88.329 E0.01306
G1 X161.668 Y90.088 E0.07801
G1 X161.277 Y90.230 E0.01306
G1 X159.518 Y88.472 E0.07801
G1 X159.127 Y88.614 E0.01306
G1 X160.886 Y90.373 E0.07801
G1 X160.495 Y90.515 E0.01306
G1 X158.736 Y88.756 E0.07801
G1 X158.345 Y88.899 E0.01306
G1 X160.104 Y90.657 E0.07801
G1 X159.712 Y90.800 E0.01306
G1 X157.954 Y89.041 E0.07801
G1 X157.563 Y89.183 E0.01306
G1 X159.321 Y90.942 E0.07801
G1 X158.930 Y91.084 E0.01306
G1 X157.171 Y89.326 E0.07801
G1 X156.780 Y89.468 E0.01306
G1 X158.539 Y91.227 E0.07802
G1 X158.148 Y91.369 E0.01306
G1 X156.389 Y89.610 E0.07802
G1 X155.998 Y89.753 E0.01306
G1 X157.757 Y91.511 E0.07802
G1 X157.366 Y91.654 E0.01306
G1 X155.607 Y89.895 E0.07802
G1 X155.216 Y90.037 E0.01306
G1 X156.975 Y91.796 E0.07802
G1 X156.583 Y91.939 E0.01306
G1 X154.825 Y90.180 E0.07802
G1 X154.433 Y90.322 E0.01306
G1 X156.192 Y92.081 E0.07802
G1 X155.801 Y92.223 E0.01306
G1 X154.042 Y90.464 E0.07802
G1 X153.651 Y90.607 E0.01306
G1 X155.410 Y92.366 E0.07802
G1 X155.019 Y92.508 E0.01306
G1 X153.260 Y90.749 E0.07802
G1 X152.869 Y90.891 E0.01306
G1 X154.628 Y92.650 E0.07802
G1 X154.237 Y92.793 E0.01306
G1 X152.478 Y91.034 E0.07803
G1 X152.087 Y91.176 E0.01306
G1 X153.846 Y92.935 E0.07803
G1 X153.454 Y93.077 E0.01306
G1 X151.695 Y91.318 E0.07803
G1 X151.304 Y91.461 E0.01306
G1 X153.063 Y93.220 E0.07803
G1 X152.672 Y93.362 E0.01306
G1 X150.913 Y91.603 E0.07803
G1 X150.522 Y91.745 E0.01306
G1 X152.281 Y93.504 E0.07803
G1 X151.890 Y93.647 E0.01306
G1 X150.131 Y91.888 E0.07803
G1 X149.740 Y92.030 E0.01306
G1 X151.499 Y93.789 E0.07803
G1 X151.108 Y93.932 E0.01306
G1 X149.349 Y92.172 E0.07803
G1 X148.957 Y92.315 E0.01306
G1 X150.717 Y94.074 E0.07803
G1 X150.325 Y94.216 E0.01306
G1 X148.566 Y92.457 E0.07803
G1 X148.175 Y92.599 E0.01306
G1 X149.934 Y94.359 E0.07803
G1 X149.543 Y94.501 E0.01306
G1 X147.784 Y92.742 E0.07804
G1 X147.393 Y92.884 E0.01306
G1 X149.152 Y94.643 E0.07804
G1 X148.761 Y94.786 E0.01306
G1 X147.002 Y93.026 E0.07804
G1 X146.611 Y93.169 E0.01306
G1 X148.370 Y94.928 E0.07804
G1 X147.979 Y95.070 E0.01306
G1 X146.219 Y93.311 E0.07804
G1 X145.828 Y93.453 E0.01306
G1 X147.588 Y95.213 E0.07804
G1 X147.196 Y95.355 E0.01306
G1 X145.437 Y93.596 E0.07804
G1 X145.046 Y93.738 E0.01306
G1 X146.805 Y95.497 E0.07804
G1 X146.414 Y95.640 E0.01306
G1 X144.655 Y93.881 E0.07804
G1 X144.264 Y94.023 E0.01306
G1 X146.023 Y95.782 E0.07804
G1 X145.632 Y95.925 E0.01306
G1 X143.873 Y94.165 E0.07804
G1 X143.481 Y94.308 E0.01306
G1 X145.241 Y96.067 E0.07805
G1 X144.850 Y96.209 E0.01306
G1 X143.090 Y94.450 E0.07805
G1 X142.699 Y94.592 E0.01306
G1 X144.458 Y96.352 E0.07805
G1 X144.067 Y96.494 E0.01306
G1 X142.308 Y94.735 E0.07805
G1 X141.917 Y94.877 E0.01306
G1 X143.676 Y96.636 E0.07805
G1 X143.285 Y96.779 E0.01306
G1 X141.526 Y95.019 E0.07805
G1 X141.134 Y95.162 E0.01306
G1 X142.894 Y96.921 E0.07805
G1 X142.503 Y97.063 E0.01306
G1 X140.743 Y95.304 E0.07805
G1 X140.352 Y95.446 E0.01306
G1 X142.112 Y97.206 E0.07805
G1 X141.721 Y97.348 E0.01306
G1 X139.961 Y95.589 E0.07805
G1 X139.570 Y95.731 E0.01306
G1 X141.329 Y97.491 E0.07805
G1 X140.938 Y97.633 E0.01306
G1 X139.179 Y95.873 E0.07806
G1 X138.788 Y96.016 E0.01306
G1 X140.547 Y97.775 E0.07806
G1 X140.156 Y97.918 E0.01306
G1 X138.396 Y96.158 E0.07806
G1 X138.005 Y96.300 E0.01306
G1 X139.765 Y98.060 E0.07806
G1 X139.374 Y98.202 E0.01306
G1 X137.614 Y96.443 E0.07806
G1 X137.223 Y96.585 E0.01306
G1 X138.983 Y98.345 E0.07806
G1 X138.592 Y98.487 E0.01306
G1 X136.832 Y96.727 E0.07806
G1 X136.441 Y96.870 E0.01306
G1 X138.200 Y98.629 E0.07806
G1 X137.809 Y98.772 E0.01306
G1 X136.050 Y97.012 E0.07806
G1 X135.658 Y97.154 E0.01306
G1 X137.418 Y98.914 E0.07806
G1 X137.027 Y99.056 E0.01306
G1 X135.267 Y97.297 E0.07806
G1 X134.876 Y97.439 E0.01306
G1 X136.636 Y99.199 E0.07807
G1 X136.245 Y99.341 E0.01306
G1 X134.485 Y97.581 E0.07807
G1 X134.094 Y97.724 E0.01306
G1 X135.854 Y99.484 E0.07807
G1 X135.463 Y99.626 E0.01306
G1 X133.703 Y97.866 E0.07807
G1 X133.312 Y98.008 E0.01306
G1 X135.071 Y99.768 E0.07807
G1 X134.680 Y99.911 E0.01306
G1 X132.920 Y98.151 E0.07807
G1 X132.529 Y98.293 E0.01306
G1 X134.289 Y100.053 E0.07807
G1 X133.898 Y100.195 E0.01306
G1 X132.138 Y98.435 E0.07807
G1 X131.747 Y98.578 E0.01306
G1 X133.507 Y100.338 E0.07807
G1 X133.116 Y100.480 E0.01306
G1 X131.356 Y98.720 E0.07807
G1 X130.965 Y98.862 E0.01306
G1 X132.725 Y100.622 E0.07807
G1 X132.334 Y100.765 E0.01306
G1 X130.574 Y99.005 E0.07807
G1 X130.182 Y99.147 E0.01306
G1 X131.942 Y100.907 E0.07808
G1 X131.551 Y101.049 E0.01306
G1 X129.791 Y99.289 E0.07808
G1 X129.400 Y99.432 E0.01306
G1 X131.160 Y101.192 E0.07808
G1 X130.769 Y101.334 E0.01306
G1 X129.009 Y99.574 E0.07808
G1 X128.618 Y99.716 E0.01306
G1 X130.378 Y101.477 E0.07808
G1 X129.987 Y101.619 E0.01306
G1 X128.227 Y99.859 E0.07808
G1 X127.835 Y100.001 E0.01306
G1 X129.596 Y101.761 E0.07808
G1 X129.205 Y101.904 E0.01306
G1 X127.444 Y100.143 E0.07808
G1 X127.053 Y100.286 E0.01306
G1 X128.813 Y102.046 E0.07808
G1 X128.422 Y102.188 E0.01306
G1 X126.662 Y100.428 E0.07808
G1 X126.271 Y100.570 E0.01306
G1 X128.031 Y102.331 E0.07808
G1 X127.640 Y102.473 E0.01306
G1 X125.880 Y100.713 E0.07809
G1 X125.489 Y100.855 E0.01306
G1 X127.249 Y102.615 E0.07809
G1 X126.858 Y102.758 E0.01306
G1 X125.097 Y100.997 E0.07809
G1 X124.706 Y101.140 E0.01306
G1 X126.467 Y102.900 E0.07809
G1 X126.076 Y103.042 E0.01306
G1 X124.315 Y101.282 E0.07809
G1 X123.924 Y101.424 E0.01306
G1 X125.684 Y103.185 E0.07809
G1 X125.293 Y103.327 E0.01306
G1 X123.533 Y101.567 E0.07809
G1 X123.142 Y101.709 E0.01306
G1 X124.902 Y103.470 E0.07809
G1 X124.511 Y103.612 E0.01306
G1 X122.751 Y101.851 E0.07809
G1 X122.359 Y101.994 E0.01306
G1 X124.120 Y103.754 E0.07809
G1 X123.729 Y103.897 E0.01306
G1 X121.968 Y102.136 E0.07809
G1 X121.577 Y102.278 E0.01306
G1 X123.338 Y104.039 E0.07810
G1 X122.947 Y104.181 E0.01306
G1 X121.186 Y102.421 E0.07810
G1 X120.795 Y102.563 E0.01306
G1 X122.555 Y104.324 E0.07810
G1 X122.164 Y104.466 E0.01306
G1 X120.404 Y102.706 E0.07810
G1 X120.013 Y102.848 E0.01306
G1 X121.773 Y104.608 E0.07810
G1 X121.382 Y104.751 E0.01306
G1 X119.621 Y102.990 E0.07810
G1 X119.230 Y103.133 E0.01306
G1 X120.991 Y104.893 E0.07810
G1 X120.600 Y105.035 E0.01306
G1 X118.839 Y103.275 E0.07810
G1 X118.448 Y103.417 E0.01306
G1 X120.209 Y105.178 E0.07810
G1 X119.818 Y105.320 E0.01306
G1 X118.057 Y103.560 E0.07810
G1 X117.666 Y103.702 E0.01306
G1 X119.426 Y105.463 E0.07810
G1 X119.035 Y105.605 E0.01306
G1 X117.275 Y103.844 E0.07810
G1 X116.883 Y103.987 E0.01306
G1 X118.644 Y105.747 E0.07811
G1 X118.253 Y105.890 E0.01306
G1 X116.492 Y104.129 E0.07811
G1 X116.101 Y104.271 E0.01306
G1 X117.862 Y106.032 E0.07811
G1 X117.471 Y106.174 E0.01306
G1 X115.710 Y104.414 E0.07811
G1 X115.319 Y104.556 E0.01306
G1 X117.080 Y106.317 E0.07811
G1 X116.688 Y106.459 E0.01306
G1 X114.928 Y104.698 E0.07811
G1 X114.537 Y104.841 E0.01306
G1 X116.297 Y106.601 E0.07811
G1 X115.906 Y106.744 E0.01306
G1 X114.145 Y104.983 E0.07811
G1 X113.754 Y105.125 E0.01306
G1 X115.515 Y106.886 E0.07811
G1 X115.124 Y107.029 E0.01306
G1 X113.363 Y105.268 E0.07811
G1 X112.972 Y105.410 E0.01306
G1 X114.733 Y107.171 E0.07811
G1 X114.342 Y107.313 E0.01306
G1 X112.581 Y105.552 E0.07812
G1 X112.190 Y105.695 E0.01306
G1 X113.951 Y107.456 E0.07812
G1 X113.559 Y107.598 E0.01306
G1 X111.798 Y105.837 E0.07812
G1 X111.407 Y105.979 E0.01306
G1 X113.168 Y107.740 E0.07812
G1 X112.777 Y107.883 E0.01306
G1 X111.016 Y106.122 E0.07812
G1 X110.625 Y106.264 E0.01306
G1 X112.386 Y108.025 E0.07812
G1 X111.995 Y108.167 E0.01306
G1 X110.234 Y106.406 E0.07812
G1 X109.843 Y106.549 E0.01306
G1 X111.604 Y108.310 E0.07812
G1 X111.213 Y108.452 E0.01306
G1 X109.452 Y106.691 E0.07812
G1 X109.060 Y106.833 E0.01306
G1 X110.822 Y108.594 E0.07812
G1 X110.430 Y108.737 E0.01306
G1 X108.669 Y106.976 E0.07812
G1 X108.278 Y107.118 E0.01306
G1 X110.039 Y108.879 E0.07813
G1 X109.648 Y109.022 E0.01306
G1 X107.887 Y107.260 E0.07813
G1 X107.496 Y107.403 E0.01306
G1 X109.257 Y109.164 E0.07813
G1 X108.866 Y109.306 E0.01306
G1 X107.105 Y107.545 E0.07813
G1 X106.714 Y107.687 E0.01306
G1 X108.475 Y109.449 E0.07813
G1 X108.084 Y109.591 E0.01306
G1 X106.322 Y107.830 E0.07813
G1 X105.931 Y107.972 E0.01306
G1 X107.693 Y109.733 E0.07813
G1 X107.301 Y109.876 E0.01306
G1 X105.540 Y108.114 E0.07813
G1 X105.149 Y108.257 E0.01306
G1 X106.910 Y110.018 E0.07813
G1 X106.519 Y110.160 E0.01306
G1 X104.758 Y108.399 E0.07813
G1 X104.367 Y108.541 E0.01306
G1 X106.128 Y110.303 E0.07813
G1 X105.737 Y110.445 E0.01306
G1 X103.976 Y108.684 E0.07814
G1 X103.584 Y108.826 E0.01306
G1 X105.346 Y110.587 E0.07814
G1 X104.955 Y110.730 E0.01306
G1 X103.193 Y108.968 E0.07814
G1 X102.802 Y109.111 E0.01306
G1 X104.564 Y110.872 E0.07814
G1 X104.172 Y111.015 E0.01306
G1 X102.411 Y109.253 E0.07814
G1 X102.020 Y109.395 E0.01306
G1 X103.781 Y111.157 E0.07814
G1 X103.390 Y111.299 E0.01306
G1 X101.629 Y109.538 E0.07814
G1 X101.238 Y109.680 E0.01306
G1 X102.999 Y111.442 E0.07814
G1 X102.608 Y111.584 E0.01306
G1 X100.846 Y109.822 E0.07814
G1 X100.455 Y109.965 E0.01306
G1 X102.217 Y111.726 E0.07814
G1 X101.826 Y111.869 E0.01306
G1 X100.064 Y110.107 E0.07814
G1 X99.673 Y110.249 E0.01306
G1 X101.435 Y112.011 E0.07814
G1 X101.043 Y112.153 E0.01306
G1 X99.282 Y110.392 E0.07815
G1 X98.891 Y110.534 E0.01306
G1 X100.652 Y112.296 E0.07815
G1 X100.261 Y112.438 E0.01306
G1 X98.499 Y110.676 E0.07815
G1 X98.108 Y110.819 E0.01306
G1 X99.870 Y112.580 E0.07815
G1 X99.479 Y112.723 E0.01306
G1 X97.717 Y110.961 E0.07815
G1 X97.326 Y111.103 E0.01306
G1 X99.088 Y112.865 E0.07815
G1 X98.697 Y113.008 E0.01306
G1 X96.935 Y111.246 E0.07815
G1 X96.544 Y111.388 E0.01306
G1 X98.306 Y113.150 E0.07815
G1 X97.914 Y113.292 E0.01306
G1 X96.153 Y111.530 E0.07815
G1 X95.761 Y111.673 E0.01306
