; generated by PrusaSlicer 2.1.0+linux64 on 2019-10-20 at 02:54:22 UTC

; 

; external perimeters extrusion width = 0.45mm
; perimeters extrusion width = 0.45mm
; infill extrusion width = 0.45mm
; solid infill extrusion width = 0.45mm
; top infill extrusion width = 0.40mm
; support material extrusion width = 0.35mm
; first layer extrusion width = 0.42mm

M73 P0 R241
M73 Q0 S244
M201 X1000 Y1000 Z1000 E5000 ; sets maximum accelerations, mm/sec^2
M203 X200 Y200 Z12 E120 ; sets maximum feedrates, mm/sec
M204 P1250 R1250 T1250 ; sets acceleration (P, T) and retract acceleration (R), mm/sec^2
M205 X8.00 Y8.00 Z0.40 E1.50 ; sets the jerk limits, mm/sec
M205 S0 T0 ; sets the minimum extruding and travel feed rate, mm/sec
M107
M862.3 P "MK3" ; printer model check
M862.1 P0.4 ; nozzle diameter check
M115 U3.8.0 ; tell printer latest fw version
G90 ; use absolute coordinates
M83 ; extruder relative mode
M104 S215 ; set extruder temp
M140 S60 ; set bed temp
M190 S60 ; wait for bed temp
M109 S215 ; wait for extruder temp
G28 W ; home all without mesh bed level
G80 ; mesh bed leveling
G1 Y-3.0 F1000.0 ; go outside print area
G92 E0.0
G1 X60.0 E9.0 F1000.0 ; intro line
M73 Q0 S244
M73 P0 R241
G1 X100.0 E12.5 F1000.0 ; intro line
G92 E0.0
M221 S95
G21 ; set units to millimeters
G90 ; use absolute coordinates
M83 ; use relative distances for extrusion
M900 K30 ; Filament gcode
;BEFORE_LAYER_CHANGE
G92 E0.0
;0.2


G1 E-0.80000 F2100.00000
G1 Z0.600 F10800.000
;AFTER_LAYER_CHANGE
;0.2
G1 X50.252 Y63.125
G1 Z0.200
G1 E0.80000 F2100.00000
M204 S1000
G1 F1200
G1 X50.805 Y62.881 E0.01896
G1 X51.408 Y62.797 E0.01908
G1 X61.386 Y62.968 E0.31290
G1 X61.909 Y63.044 E0.01658
G1 X172.685 Y95.355 E3.61803
G1 X179.860 Y97.752 E0.23721
G1 X180.576 Y98.249 E0.02732
G1 X202.628 Y121.555 E1.00601
G1 X202.995 Y122.365 E0.02788
G1 X203.009 Y123.254 E0.02788
G1 X201.501 Y127.470 E0.14039
G1 X201.205 Y127.964 E0.01805
G1 X200.791 Y128.364 E0.01805
G1 X200.286 Y128.642 E0.01805
G1 X199.723 Y128.779 E0.01817
G1 X53.357 Y144.057 E4.61416
G1 X49.067 Y144.067 E0.13449
G1 X48.273 Y143.889 E0.02552
G1 X47.742 Y143.563 E0.01953
G1 X47.323 Y143.098 E0.01964
G1 X47.053 Y142.536 E0.01953
G1 X46.952 Y141.918 E0.01964
G1 X46.954 Y71.795 E2.19865
G1 X47.056 Y71.214 E0.01851
G1 X49.441 Y64.016 E0.23775
G1 X49.784 Y63.514 E0.01908
G1 X50.206 Y63.163 E0.01719
G1 F8640
G1 X50.805 Y62.881 E-0.15301
G1 X51.408 Y62.797 E-0.14048
G1 X53.428 Y62.832 E-0.46651
G1 E-0.04000 F2100.00000
G1 Z0.800 F10800.000
G1 X51.403 Y64.986
G1 Z0.200
G1 E0.80000 F2100.00000
G1 F1200
G1 X51.403 Y68.006 E0.09469
G1 X52.157 Y68.281 E0.02516
G1 X52.157 Y65.156 E0.09798
G1 X52.911 Y65.156 E0.02365
G1 X52.911 Y68.555 E0.10659
G1 X53.665 Y68.830 E0.02516
G1 X53.665 Y65.156 E0.11519
G1 X54.420 Y65.156 E0.02365
G1 X54.420 Y69.104 E0.12380
G1 X55.174 Y69.379 E0.02516
G1 X55.174 Y65.156 E0.13240
G1 X55.928 Y65.156 E0.02365
G1 X55.928 Y69.653 E0.14101
G1 X56.682 Y69.928 E0.02516
G1 X56.682 Y65.156 E0.14962
G1 X57.436 Y65.156 E0.02365
G1 X57.436 Y70.202 E0.15822
G1 X58.190 Y70.476 E0.02516
G1 X58.190 Y65.156 E0.16683
G1 X58.945 Y65.156 E0.02365
G1 X58.945 Y70.751 E0.17544
G1 X59.699 Y71.025 E0.02516
G1 X59.699 Y65.156 E0.18404
G1 X60.453 Y65.156 E0.02365
G1 X60.453 Y71.300 E0.19265
G1 X61.207 Y71.574 E0.02516
G1 X61.207 Y65.156 E0.20126
G1 X61.334 Y65.156 E0.00397
G1 X61.334 Y67.463 E0.07234
G1 X61.961 Y67.463 E0.01967
G1 X61.961 Y71.849 E0.13753
G1 X62.715 Y72.123 E0.02516
G1 X62.715 Y67.463 E0.14613
G1 X63.470 Y67.463 E0.02365
G1 X63.470 Y72.398 E0.15474
G1 X64.224 Y72.672 E0.02516
G1 X64.224 Y67.463 E0.16335
G1 X64.978 Y67.463 E0.02365
G1 X64.978 Y72.947 E0.17195
G1 X65.732 Y73.221 E0.02516
G1 X65.732 Y67.463 E0.18056
G1 X66.486 Y67.463 E0.02365
G1 X66.486 Y73.496 E0.18917
G1 X67.240 Y73.770 E0.02516
G1 X67.240 Y67.463 E0.19777
G1 X67.994 Y67.463 E0.02365
G1 X67.994 Y74.225 E0.21204
G1 F8640
G1 X67.994 Y70.934 E-0.76000
G1 E-0.04000 F2100.00000
G1 Z0.800 F10800.000
G1 X66.486 Y80.184
G1 Z0.200
G1 E0.80000 F2100.00000
G1 F1200
G1 X66.486 Y78.633 E0.04865
G1 X65.732 Y78.358 E0.02516
G1 X65.732 Y80.314 E0.06132
G1 X64.978 Y80.314 E0.02365
G1 X64.978 Y78.084 E0.06992
G1 X64.224 Y77.809 E0.02516
G1 X64.224 Y80.314 E0.07853
G1 X63.470 Y80.314 E0.02365
G1 X63.470 Y77.535 E0.08714
G1 X62.715 Y77.260 E0.02516
G1 X62.715 Y80.314 E0.09574
G1 X61.961 Y80.314 E0.02365
G1 X61.961 Y76.986 E0.10435
G1 X61.207 Y76.711 E0.02516
G1 X61.207 Y80.314 E0.11295
G1 X60.453 Y80.314 E0.02365
G1 X60.453 Y76.437 E0.12156
G1 X59.699 Y76.162 E0.02516
G1 X59.699 Y80.314 E0.13017
G1 X58.945 Y80.314 E0.02365
G1 X58.945 Y75.888 E0.13877
G1 X58.190 Y75.613 E0.02516
G1 X58.190 Y80.314 E0.14738
G1 X57.436 Y80.314 E0.02365
G1 X57.436 Y75.339 E0.15599
G1 X56.682 Y75.064 E0.02516
G1 X56.682 Y80.314 E0.16459
G1 X55.928 Y80.314 E0.02365
G1 X55.928 Y74.790 E0.17320
G1 X55.174 Y74.515 E0.02516
G1 X55.174 Y80.314 E0.18181
G1 X54.420 Y80.314 E0.02365
G1 X54.420 Y74.241 E0.19041
G1 X53.665 Y73.966 E0.02516
G1 X53.665 Y80.484 E0.20434
G1 F8640
G1 X53.665 Y77.192 E-0.76000
G1 E-0.04000 F2100.00000
G1 Z0.800 F10800.000
G1 X147.935 Y99.592
G1 Z0.200
G1 E0.80000 F2100.00000
G1 F1200
G1 X147.935 Y103.141 E0.11127
G1 X148.689 Y103.415 E0.02516
G1 X148.689 Y99.762 E0.11456
G1 X149.444 Y99.762 E0.02365
G1 X149.444 Y103.690 E0.12316
G1 X150.198 Y103.964 E0.02516
G1 X150.198 Y95.148 E0.27644
G1 X150.952 Y95.148 E0.02365
G1 X150.952 Y102.385 E0.22691
G1 X151.706 Y102.385 E0.02365
G1 X151.706 Y95.148 E0.22691
G1 X152.460 Y95.148 E0.02365
G1 X152.460 Y102.385 E0.22691
G1 X152.617 Y102.385 E0.00491
G1 X152.617 Y100.078 E0.07234
G1 X153.214 Y100.078 E0.01873
G1 X153.214 Y95.148 E0.15457
G1 X153.969 Y95.148 E0.02365
G1 X153.969 Y100.078 E0.15457
G1 X154.723 Y100.078 E0.02365
G1 X154.723 Y95.148 E0.15457
G1 X155.477 Y95.148 E0.02365
G1 X155.477 Y105.886 E0.33669
G1 X156.231 Y106.160 E0.02516
G1 X156.231 Y95.148 E0.34530
G1 X156.985 Y95.148 E0.02365
G1 X156.985 Y106.435 E0.35390
G1 X157.739 Y106.709 E0.02516
G1 X157.739 Y95.148 E0.36251
G1 X158.494 Y95.148 E0.02365
G1 X158.494 Y106.984 E0.37111
G1 X159.248 Y107.258 E0.02516
G1 X159.248 Y95.148 E0.37972
G1 X160.002 Y95.148 E0.02365
G1 X160.002 Y102.385 E0.22691
G1 X160.756 Y102.385 E0.02365
G1 X160.756 Y95.148 E0.22691
G1 X161.510 Y95.148 E0.02365
G1 X161.510 Y102.385 E0.22691
G1 X161.845 Y102.385 E0.01051
G1 X161.845 Y100.078 E0.07234
G1 X162.264 Y100.078 E0.01314
G1 X162.264 Y95.148 E0.15457
G1 X162.845 Y95.148 E0.01821
G1 X162.845 Y97.455 E0.07234
G1 X163.019 Y97.455 E0.00543
G1 X163.019 Y100.078 E0.08224
G1 X163.773 Y100.078 E0.02365
G1 X163.773 Y97.455 E0.08224
G1 X164.527 Y97.455 E0.02365
G1 X164.527 Y100.078 E0.08224
G1 X164.837 Y100.078 E0.00971
G1 X164.837 Y102.385 E0.07234
G1 X165.281 Y102.385 E0.01394
G1 X165.281 Y97.455 E0.15457
G1 X166.035 Y97.455 E0.02365
G1 X166.035 Y102.385 E0.15457
G1 X166.789 Y102.385 E0.02365
G1 X166.789 Y97.455 E0.15457
G1 X167.543 Y97.455 E0.02365
G1 X167.543 Y102.385 E0.15457
G1 X168.298 Y102.385 E0.02365
G1 X168.298 Y97.455 E0.15457
G1 X169.052 Y97.455 E0.02365
G1 X169.052 Y102.385 E0.15457
G1 X169.806 Y102.385 E0.02365
G1 X169.806 Y97.455 E0.15457
G1 X170.560 Y97.455 E0.02365
G1 X170.560 Y102.385 E0.15457
G1 X171.314 Y102.385 E0.02365
G1 X171.314 Y97.455 E0.15457
G1 X172.068 Y97.455 E0.02365
G1 X172.068 Y104.692 E0.22691
G1 X172.823 Y104.692 E0.02365
G1 X172.823 Y99.762 E0.15457
G1 X173.577 Y99.762 E0.02365
G1 X173.577 Y104.692 E0.15457
G1 X174.331 Y104.692 E0.02365
G1 X174.331 Y99.762 E0.15457
G1 X175.085 Y99.762 E0.02365
G1 X175.085 Y104.692 E0.15457
G1 X175.839 Y104.692 E0.02365
G1 X175.839 Y99.762 E0.15457
G1 X176.593 Y99.762 E0.02365
G1 X176.593 Y113.572 E0.43300
G1 X177.348 Y113.846 E0.02516
G1 X177.348 Y99.762 E0.44160
G1 X178.102 Y99.762 E0.02365
G1 X178.102 Y114.121 E0.45021
G1 X178.856 Y114.395 E0.02516
G1 X178.856 Y99.762 E0.45882
G1 X178.995 Y99.762 E0.00436
G1 X178.995 Y102.069 E0.07234
G1 X179.610 Y102.069 E0.01929
G1 X179.610 Y114.670 E0.39509
G1 X180.364 Y114.944 E0.02516
G1 X180.364 Y102.069 E0.40369
G1 X181.118 Y102.069 E0.02365
G1 X181.118 Y115.399 E0.41796
G1 X175.839 Y113.478 F10800.000
G1 F1200
G1 X175.839 Y109.990 E0.10935
G1 X175.085 Y109.990 E0.02365
G1 X175.085 Y113.023 E0.09508
G1 X174.331 Y112.748 E0.02516
G1 X174.331 Y109.990 E0.08648
G1 X173.577 Y109.990 E0.02365
G1 X173.577 Y112.474 E0.07787
G1 X172.823 Y112.199 E0.02516
G1 X172.823 Y109.990 E0.06926
G1 X172.068 Y109.990 E0.02365
G1 X172.068 Y111.925 E0.06066
G1 X171.314 Y111.650 E0.02516
G1 X171.314 Y109.990 E0.05205
G1 X170.560 Y109.990 E0.02365
G1 X170.560 Y111.376 E0.04344
G1 X169.806 Y111.101 E0.02516
G1 X169.806 Y109.990 E0.03484
G1 X169.052 Y109.990 E0.02365
G1 X169.052 Y110.827 E0.02623
G1 X168.298 Y110.552 E0.02516
G1 X168.298 Y109.990 E0.01763
G1 X167.543 Y109.990 E0.02365
G1 X167.543 Y110.278 E0.00902
G1 X166.789 Y110.003 E0.02516
G1 X166.789 Y109.820 E0.00573
G1 F8640
G1 X166.789 Y110.003 E-0.04222
G1 X167.543 Y110.278 E-0.18531
G1 X167.543 Y109.990 E-0.06642
G1 X168.298 Y109.990 E-0.17414
G1 X168.298 Y110.552 E-0.12980
G1 X168.957 Y110.792 E-0.16211
G1 E-0.04000 F2100.00000
G1 Z0.800 F10800.000
G1 X165.262 Y109.632
G1 Z0.200
G1 E0.80000 F2100.00000
G1 F1200
G1 X165.262 Y102.727 E0.17631
M73 Q0 S243
G1 X164.755 Y102.727 E0.01295
G1 X164.755 Y109.300 E0.16784
G1 X164.494 Y109.205 E0.00707
G1 X164.494 Y107.341 E0.04760
G1 X164.247 Y107.341 E0.00631
G1 X164.247 Y100.420 E0.17673
M73 P0 R240
G1 X163.740 Y100.420 E0.01295
G1 X163.740 Y107.341 E0.17673
G1 X163.233 Y107.341 E0.01295
G1 X163.233 Y100.420 E0.17673
G1 X162.726 Y100.420 E0.01295
G1 X162.726 Y107.341 E0.17673
G1 X162.219 Y107.341 E0.01295
G1 X162.219 Y100.420 E0.17673
G1 X162.187 Y100.420 E0.00081
G1 X162.187 Y102.727 E0.05891
G1 X161.712 Y102.727 E0.01214
G1 X161.712 Y107.341 E0.11782
G1 X161.205 Y107.341 E0.01295
G1 X161.205 Y102.727 E0.11782
G1 X160.698 Y102.727 E0.01295
G1 X160.698 Y107.341 E0.11782
G1 X160.191 Y107.341 E0.01295
G1 X160.191 Y102.589 E0.12135
G1 X160.756 Y107.513 F10800.000
G1 F1200
G1 X160.756 Y107.807 E0.00922
G1 X161.510 Y108.082 E0.02516
G1 X161.510 Y107.683 E0.01250
G1 X162.264 Y107.683 E0.02365
G1 X162.264 Y108.356 E0.02111
G1 X163.019 Y108.631 E0.02516
G1 X163.019 Y107.683 E0.02972
G1 X163.773 Y107.683 E0.02365
G1 X163.773 Y109.086 E0.04399
G1 F8640
G1 X163.773 Y107.683 E-0.32392
G1 X163.019 Y107.683 E-0.17414
G1 X163.019 Y108.631 E-0.21884
G1 X162.843 Y108.567 E-0.04310
G1 E-0.04000 F2100.00000
G1 Z0.800 F10800.000
G1 X169.825 Y102.589
G1 Z0.200
G1 E0.80000 F2100.00000
G1 F1200
G1 X169.825 Y105.983 E0.08668
G1 X169.693 Y105.737 E0.00714
G1 X169.639 Y105.674 E0.00213
G1 X169.318 Y105.435 E0.01021
G1 X169.318 Y102.727 E0.06915
G1 X168.811 Y102.727 E0.01295
G1 X168.811 Y105.189 E0.06287
G1 X168.304 Y104.968 E0.01413
G1 X168.304 Y102.727 E0.05722
G1 X167.797 Y102.727 E0.01295
G1 X167.797 Y104.747 E0.05157
G1 X167.290 Y104.647 E0.01319
G1 X167.290 Y102.727 E0.04904
G1 X166.783 Y102.727 E0.01295
G1 X166.783 Y104.560 E0.04682
G1 X166.488 Y104.510 E0.00763
G1 X166.276 Y104.535 E0.00546
G1 X166.276 Y102.727 E0.04616
G1 X165.769 Y102.727 E0.01295
G1 X165.769 Y104.690 E0.05012
G1 X165.375 Y104.941 E0.01193
G1 X165.288 Y105.188 E0.00668
G1 X165.468 Y105.756 E0.01522
G1 X165.504 Y105.822 E0.00193
G1 X165.769 Y106.134 E0.01043
G1 X165.769 Y109.648 E0.08973
G1 X166.276 Y109.648 E0.01295
G1 X166.276 Y106.468 E0.08121
G1 X166.783 Y106.764 E0.01499
G1 X166.783 Y109.648 E0.07365
G1 X167.290 Y109.648 E0.01295
G1 X167.290 Y106.967 E0.06845
G1 X167.797 Y107.117 E0.01350
G1 X167.797 Y109.648 E0.06463
G1 X168.304 Y109.648 E0.01295
G1 X168.304 Y107.266 E0.06081
G1 X168.548 Y107.333 E0.00646
G1 X168.811 Y107.348 E0.00673
G1 X168.811 Y109.648 E0.05872
G1 X169.318 Y109.648 E0.01295
G1 X169.318 Y107.258 E0.06102
G1 X169.825 Y107.047 E0.01403
G1 X169.825 Y109.648 E0.06642
G1 X170.332 Y109.648 E0.01295
G1 X170.332 Y102.727 E0.17673
G1 X170.839 Y102.727 E0.01295
G1 X170.839 Y109.648 E0.17673
G1 X171.347 Y109.648 E0.01295
G1 X171.347 Y102.727 E0.17673
G1 X171.416 Y102.727 E0.00177
G1 X171.416 Y105.034 E0.05891
G1 X171.854 Y105.034 E0.01118
G1 X171.854 Y109.648 E0.11782
G1 X172.361 Y109.648 E0.01295
G1 X172.361 Y105.034 E0.11782
G1 X172.868 Y105.034 E0.01295
G1 X172.868 Y109.648 E0.11782
G1 X173.375 Y109.648 E0.01295
G1 X173.375 Y105.034 E0.11782
G1 X173.882 Y105.034 E0.01295
G1 X173.882 Y109.648 E0.11782
G1 X174.389 Y109.648 E0.01295
G1 X174.389 Y105.034 E0.11782
G1 X174.896 Y105.034 E0.01295
G1 X174.896 Y109.648 E0.11782
G1 X175.403 Y109.648 E0.01295
G1 X175.403 Y105.034 E0.11782
G1 X175.910 Y105.034 E0.01295
G1 X175.910 Y109.786 E0.12135
G1 F8640
G1 X175.910 Y106.495 E-0.76000
G1 E-0.04000 F2100.00000
G1 Z0.800 F10800.000
G1 X155.120 Y105.172
G1 Z0.200
G1 E0.80000 F2100.00000
G1 F1200
G1 X155.120 Y100.420 E0.12135
G1 X154.613 Y100.420 E0.01295
G1 X154.613 Y105.034 E0.11782
G1 X154.106 Y105.034 E0.01295
G1 X154.106 Y100.420 E0.11782
G1 X153.599 Y100.420 E0.01295
G1 X153.599 Y105.034 E0.11782
G1 X153.092 Y105.034 E0.01295
G1 X153.092 Y100.420 E0.11782
G1 X152.959 Y100.420 E0.00339
G1 X152.959 Y102.727 E0.05891
G1 X152.585 Y102.727 E0.00956
G1 X152.585 Y104.870 E0.05474
G1 X152.078 Y104.686 E0.01378
G1 X152.078 Y102.727 E0.05002
G1 X151.570 Y102.727 E0.01295
G1 X151.570 Y104.501 E0.04531
G1 X151.063 Y104.317 E0.01378
G1 X151.063 Y102.589 E0.04413
G1 X154.723 Y105.206 F10800.000
G1 F1200
G1 X154.723 Y105.792 E0.01836
G1 F8640
G1 X154.723 Y105.206 E-0.13524
G1 E-0.66476 F2100.00000
G1 Z0.800 F10800.000
G1 X52.553 Y72.497
G1 Z0.200
G1 E0.80000 F2100.00000
G1 F1200
G1 X52.553 Y141.292 E2.15703
G1 X49.728 Y141.292 E0.08860
G1 X49.728 Y71.984 E2.17313
G1 X50.867 Y68.876 E0.10379
G1 X200.107 Y123.195 E4.97963
G1 X199.141 Y125.850 E0.08860
G1 X52.610 Y72.517 E4.88923
G1 X52.931 Y73.035 F10800.000
G1 F1200
G1 X52.931 Y141.669 E2.15197
G1 X49.351 Y141.669 E0.11225
G1 X49.351 Y71.917 E2.18705
G1 X50.642 Y68.393 E0.11768
G1 X200.590 Y122.969 E5.00324
G1 X199.366 Y126.333 E0.11225
G1 X52.987 Y73.056 E4.88416
M73 Q0 S242
M73 P0 R239
G1 X52.533 Y72.992 F10800.000
G1 F8640
G1 X52.984 Y76.347 E-0.76000
G1 E-0.04000 F2100.00000
G1 Z0.800 F10800.000
G1 X49.841 Y140.416
G1 Z0.200
G1 E0.80000 F2100.00000
G1 F1200
G1 X50.434 Y141.010 E0.02633
G1 X50.968 Y141.010 E0.01675
G1 X50.010 Y140.052 E0.04248
G1 X50.010 Y139.518 E0.01675
G1 X51.501 Y141.010 E0.06617
G1 X52.035 Y141.010 E0.01675
G1 X50.010 Y138.985 E0.08985
G1 X50.010 Y138.451 E0.01675
G1 X52.271 Y140.711 E0.10030
G1 X52.271 Y140.178 E0.01675
G1 X50.010 Y137.917 E0.10030
G1 X50.010 Y137.384 E0.01675
G1 X52.271 Y139.644 E0.10030
G1 X52.271 Y139.110 E0.01675
G1 X50.010 Y136.850 E0.10030
G1 X50.010 Y136.316 E0.01675
G1 X52.271 Y138.577 E0.10030
G1 X52.271 Y138.043 E0.01675
G1 X50.010 Y135.783 E0.10030
G1 X50.010 Y135.249 E0.01675
G1 X52.271 Y137.509 E0.10030
G1 X52.271 Y136.976 E0.01675
G1 X50.010 Y134.715 E0.10030
G1 X50.010 Y134.182 E0.01675
G1 X52.271 Y136.442 E0.10030
G1 X52.271 Y135.908 E0.01675
G1 X50.010 Y133.648 E0.10030
G1 X50.010 Y133.114 E0.01675
G1 X52.271 Y135.375 E0.10030
G1 X52.271 Y134.841 E0.01675
G1 X50.010 Y132.581 E0.10030
G1 X50.010 Y132.047 E0.01675
G1 X52.271 Y134.307 E0.10030
G1 X52.271 Y133.773 E0.01675
G1 X50.010 Y131.513 E0.10030
G1 X50.010 Y130.980 E0.01675
G1 X52.271 Y133.240 E0.10030
G1 X52.271 Y132.706 E0.01675
G1 X50.010 Y130.446 E0.10030
G1 X50.010 Y129.912 E0.01675
G1 X52.271 Y132.172 E0.10030
G1 X52.271 Y131.639 E0.01675
G1 X50.010 Y129.378 E0.10030
G1 X50.010 Y128.845 E0.01675
G1 X52.271 Y131.105 E0.10030
G1 X52.271 Y130.571 E0.01675
G1 X50.010 Y128.311 E0.10030
G1 X50.010 Y127.777 E0.01675
G1 X52.271 Y130.038 E0.10030
G1 X52.271 Y129.504 E0.01675
G1 X50.010 Y127.244 E0.10030
G1 X50.010 Y126.710 E0.01675
G1 X52.271 Y128.970 E0.10030
G1 X52.271 Y128.437 E0.01675
G1 X50.010 Y126.176 E0.10030
G1 X50.010 Y125.643 E0.01675
G1 X52.271 Y127.903 E0.10030
G1 X52.271 Y127.369 E0.01675
G1 X50.010 Y125.109 E0.10030
G1 X50.010 Y124.575 E0.01675
G1 X52.271 Y126.836 E0.10030
G1 X52.271 Y126.302 E0.01675
G1 X50.010 Y124.042 E0.10030
G1 X50.010 Y123.508 E0.01675
